X: 5928
T: Cameron MacFadyen
R: jig
M: 6/8
K: Adorian
|:ABA e2f|gfe edB|ABA edB|ABA e2f|
gfe edB|dee BAA|ABA edB|ABA A3:|
|:age edB|dee BAA||age edB|Bdd e2f|
gfe edB|dee BAA|ABA edB|ABA A3:|
|:ABA e2f|ged e3|age dBd|eee e2f|
gfe edB|dee BAA|ABA edB|ABA A3:|
|:age efg|a2g edB|age edB|dBd e2f|
gfe edB|dee BAA|ABA edB|ABA A3:|

